storage/app/icons/phosphoricons/light/shower-light.svg

<svg xmlns="http://www.w3.org/2000/svg" fill="currentColor" viewBox="0 0 256 256"><path d="M62 236a10 10 0 1 1-10-10 10 10 0 0 1 10 10m22-42a10 10 0 1 0 10 10 10 10 0 0 0-10-10m-64 0a10 10 0 1 0 10 10 10 10 0 0 0-10-10m32-32a10 10 0 1 0 10 10 10 10 0 0 0-10-10M254 40a6 6 0 0 1-6 6h-29.51l-28.9 28.89-21.76 127.43a14 14 0 0 1-23.71 7.57l-98-98a14 14 0 0 1 7.6-23.71l127.4-21.76 30.65-30.65A6 6 0 0 1 216 34h32a6 6 0 0 1 6 6m-77.34 39.34L55.7 100a2 2 0 0 0-1.11 3.39l98 98a2 2 0 0 0 3.39-1.09Z"/></svg>

<svg xmlns="http://www.w3.org/2000/svg" viewBox="0 0 256 256" fill="currentColor"><path d="M62,236a10,10,0,1,1-10-10A10,10,0,0,1,62,236Zm22-42a10,10,0,1,0,10,10A10,10,0,0,0,84,194Zm-64,0a10,10,0,1,0,10,10A10,10,0,0,0,20,194Zm32-32a10,10,0,1,0,10,10A10,10,0,0,0,52,162ZM254,40a6,6,0,0,1-6,6H218.49l-28.9,28.89L167.83,202.32a14,14,0,0,1-23.71,7.57l-98-98a14,14,0,0,1,7.6-23.71l127.4-21.76,30.65-30.65A6,6,0,0,1,216,34h32A6,6,0,0,1,254,40ZM176.66,79.34,55.7,100a2,2,0,0,0-1.11,3.39l98,98a2,2,0,0,0,3.39-1.09Z"/></svg>
